public/assets/images/about/icons/12.svg

<svg width="60" height="60" viewBox="0 0 60 60" fill="none" xmlns="http://www.w3.org/2000/svg">
<g clip-path="url(#clip0_42_54)">
<path d="M59.1458 15.7554C59.1457 15.7554 59.1457 15.7554 59.1455 15.7554L59.1436 15.7534L55.2707 15.2008C54.7264 15.1233 54.348 14.6192 54.4255 14.0748C54.4627 13.8132 54.6025 13.5773 54.8138 13.4187L57.9439 11.0711C58.3838 10.7412 58.4729 10.1173 58.143 9.67733L54.5589 4.89854C54.229 4.45862 53.605 4.36951 53.1651 4.69942L50.036 7.04701C49.5979 7.37941 48.9734 7.29379 48.641 6.85573C48.4796 6.64305 48.4104 6.37437 48.449 6.11016L49.0026 2.23735C49.0806 1.69301 48.7026 1.18863 48.1584 1.11047C48.1581 1.11047 48.1577 1.11035 48.1573 1.11035L42.2475 0.266096C41.7033 0.187943 41.1987 0.565766 41.1205 1.1101C41.1205 1.11023 41.1205 1.11023 41.1205 1.11035L40.567 4.98316C40.4895 5.5275 39.9853 5.90594 39.441 5.82841C39.1794 5.7912 38.9434 5.65145 38.7849 5.44014L36.4383 2.31003C36.1084 1.8701 35.4844 1.781 35.0445 2.11091L32.0528 4.35595C30.6993 4.21209 29.3343 4.21209 27.9808 4.35595C19.1169 5.36908 12.1659 12.438 11.3019 21.3177C11.275 21.5994 11.265 21.8792 11.2511 22.1589H10.9524C10.48 22.1598 10.0732 22.4926 9.97872 22.9554L9.29077 26.2269L6.535 24.3263C6.13951 24.0534 5.60538 24.1021 5.26564 24.4418L2.27889 27.4286C1.93965 27.7682 1.89111 28.3016 2.1634 28.6969L4.05501 31.4477L0.78253 32.1357C0.324811 32.236 -0.000993307 32.6418 2.27544e-06 33.1104V37.0927C-0.00024662 37.5636 0.329664 37.9703 0.790495 38.0674L4.06297 38.7553L2.17137 41.5061C1.89908 41.9015 1.94761 42.4348 2.28685 42.7745L5.2736 45.7612C5.61334 46.101 6.14747 46.1496 6.54297 45.8767L9.29376 43.9801L9.98171 47.2526C10.0762 47.7154 10.483 48.0482 10.9554 48.0491H14.9377C15.4086 48.0493 15.8153 47.7194 15.9124 47.2586L16.6003 43.9861L19.3511 45.8777C19.7465 46.15 20.2799 46.1015 20.6195 45.7622L22.1656 44.2111V47.0485C22.1701 48.4648 22.9289 49.7714 24.1568 50.4773V56.0087C24.1568 58.2081 25.9398 59.9911 28.1391 59.9911H32.1215C34.3208 59.9911 36.1038 58.2081 36.1038 56.0087V50.4773C37.3317 49.7714 38.0905 48.4648 38.095 47.0485V43.108C38.122 41.45 38.9894 39.9193 40.3977 39.044C41.2239 38.508 42.0075 37.9088 42.7413 37.252L41.4132 35.7686C40.7568 36.3569 40.0554 36.8932 39.3155 37.3724C37.3387 38.6132 36.1286 40.7741 36.1038 43.108V47.0485C36.1038 48.1482 35.2124 49.0397 34.1126 49.0397H26.148C25.0482 49.0397 24.1568 48.1482 24.1568 47.0485V43.0254C24.1338 40.7356 22.9427 38.6164 20.9988 37.4063C13.108 32.448 10.7305 22.0319 15.6888 14.141C18.7651 9.24513 24.134 6.26522 29.9162 6.24457C29.9014 6.28003 29.8884 6.31625 29.8774 6.35309C29.8405 6.61443 29.9089 6.87987 30.0676 7.09081L32.4142 10.2199C32.6616 10.5401 32.6853 10.9799 32.4739 11.325C32.2703 11.6722 31.8767 11.8616 31.4783 11.8039L27.6055 11.2504C27.0612 11.1723 26.5568 11.5503 26.4786 12.0945C26.4786 12.0949 26.4785 12.0952 26.4785 12.0956L25.6333 18.0084C25.5552 18.5526 25.9332 19.0571 26.4774 19.1352C26.4778 19.1352 26.4781 19.1354 26.4785 19.1354L30.3513 19.6889C30.8957 19.7664 31.2741 20.2706 31.1966 20.8149C31.1594 21.0765 31.0196 21.3125 30.8083 21.471L27.6792 23.8176C27.2393 24.1475 27.1501 24.7715 27.4801 25.2114L31.0642 29.9902C31.3941 30.4301 32.0181 30.5192 32.458 30.1893L35.5881 27.8427C36.0284 27.5134 36.6524 27.6034 36.9816 28.0438C37.1392 28.2545 37.207 28.5191 37.1701 28.7796L36.6175 32.6524C36.5394 33.1966 36.9172 33.7012 37.4615 33.7794C37.4616 33.7794 37.4616 33.7794 37.4618 33.7794L43.3755 34.6246C43.4221 34.6306 43.469 34.6336 43.5159 34.6336C44.0116 34.6342 44.4321 34.2701 44.5025 33.7794L45.0551 29.9066C45.1326 29.3622 45.6367 28.9838 46.1811 29.0613C46.4427 29.0985 46.6786 29.2383 46.8372 29.4496L49.1847 32.5787C49.5147 33.0186 50.1386 33.1077 50.5786 32.7778L55.3574 29.1937C55.7973 28.8638 55.8864 28.2398 55.5565 27.7999L53.2099 24.6708C52.9636 24.3501 52.9398 23.911 53.1502 23.5657C53.3494 23.2139 53.7466 23.0232 54.1457 23.0878L58.0185 23.6404C58.5628 23.7185 59.0674 23.3406 59.1455 22.7964C59.1455 22.7962 59.1455 22.7962 59.1455 22.7961L59.9898 16.8824C60.068 16.338 59.6901 15.8335 59.1458 15.7554ZM26.148 51.0308H34.1126V53.022H26.148V51.0308ZM26.148 55.0132H34.1126V56.0087C34.1126 57.1085 33.2212 57.9999 32.1215 57.9999H28.1391C27.0394 57.9999 26.148 57.1085 26.148 56.0087V55.0132ZM18.2221 37.8443C18.7657 38.2889 19.3337 38.7028 19.9236 39.0838C20.8643 39.6783 21.5724 40.5777 21.9297 41.6315L19.7942 43.7631L17.7263 42.3374C16.8209 41.7134 15.581 41.9417 14.9569 42.8471C14.8073 43.0643 14.7023 43.309 14.648 43.567L14.1263 46.0529H11.7598L11.2381 43.5709C11.0116 42.4948 9.9557 41.806 8.8796 42.0325C8.62162 42.0868 8.37695 42.1918 8.15979 42.3414L6.09097 43.7631L4.27702 41.9531L5.7017 39.8863C6.3263 38.9812 6.09881 37.7412 5.19371 37.1166C4.97642 36.9666 4.73151 36.8613 4.47315 36.8069L1.99117 36.2843V33.9188L4.47315 33.3961C5.54888 33.168 6.23608 32.111 6.00797 31.0352C5.95383 30.7799 5.85017 30.5379 5.7027 30.3227L4.27702 28.2499L6.09097 26.4399L8.16079 27.8656C9.06664 28.489 10.3065 28.26 10.9299 27.3541C11.0792 27.1372 11.184 26.8928 11.2381 26.6351L11.4124 25.8068C11.5719 26.9539 11.8361 28.0839 12.2019 29.1828C8.92602 29.5733 6.58702 32.5456 6.97754 35.8214C7.36806 39.0973 10.3404 41.4363 13.6162 41.0458C15.5882 40.8106 17.3144 39.6108 18.2221 37.8443ZM16.676 36.4416C15.9326 38.508 13.6548 39.5805 11.5883 38.8372C9.52187 38.0937 8.44938 35.816 9.19271 33.7495C9.76144 32.1687 11.2624 31.1157 12.9424 31.1192C12.9554 31.1192 12.9673 31.1192 12.9803 31.1192C13.8958 33.0933 15.1462 34.8939 16.676 36.4416ZM57.3097 21.5258L54.4225 21.1136C52.7895 20.8804 51.2767 22.0152 51.0435 23.6481C50.9315 24.4322 51.1356 25.2288 51.611 25.8625L53.3602 28.1952L50.1744 30.5846L48.4241 28.2529C47.4345 26.9331 45.5624 26.6654 44.2428 27.6551C43.6091 28.1302 43.1901 28.8377 43.0778 29.6218L42.6746 32.513L38.7331 31.9495L39.1453 29.0623C39.3791 27.4294 38.2449 25.9161 36.612 25.6824C35.8274 25.5701 35.0304 25.7742 34.3964 26.2498L32.0637 27.999L29.6743 24.8132L32.006 23.0629C33.3257 22.0733 33.5934 20.2013 32.6038 18.8816C32.1287 18.2479 31.4212 17.8289 30.6371 17.7167L27.7499 17.3045L28.3134 13.363L31.2006 13.7751C32.8334 14.009 34.3467 12.8748 34.5804 11.2419C34.6928 10.4572 34.4887 9.66028 34.0131 9.02622L32.2579 6.69158L35.4437 4.30219L37.194 6.63483C38.1836 7.9546 40.0556 8.22229 41.3753 7.23268C42.009 6.75754 42.428 6.05005 42.5402 5.26591L42.9524 2.37872L46.8939 2.94122L46.4817 5.82841C46.2485 7.46142 47.3832 8.9742 49.0162 9.20742C49.8004 9.31942 50.597 9.11533 51.2307 8.63994L53.5633 6.8907L55.9527 10.0766L53.6201 11.8268C52.3003 12.8164 52.0326 14.6885 53.0222 16.0081C53.4974 16.6418 54.2048 17.0608 54.989 17.1731L57.8762 17.5852L57.3097 21.5258Z" fill="#0F62FE"/>
<path d="M42.81 9.47949C38.4113 9.47949 34.8453 13.0454 34.8453 17.4441C34.8453 21.8429 38.4113 25.4088 42.81 25.4088C47.2087 25.4088 50.7747 21.8429 50.7747 17.4441C50.7697 13.0474 47.2067 9.48435 42.81 9.47949ZM42.81 23.4176C39.5109 23.4176 36.8365 20.7433 36.8365 17.4441C36.8365 14.145 39.5109 11.4707 42.81 11.4707C46.1091 11.4707 48.7835 14.145 48.7835 17.4441C48.7796 20.7416 46.1075 23.4138 42.81 23.4176Z" fill="#0F62FE"/>
<path d="M31.1259 44.0615H29.1348V47.0483H31.1259V44.0615Z" fill="#0F62FE"/>
<path d="M25.7756 34.2846C19.6298 31.8838 16.5938 24.9553 18.9948 18.8094C19.9252 16.428 21.5949 14.4078 23.7586 13.0459L22.6943 11.3613C16.1812 15.4645 14.2275 24.0707 18.3306 30.5838C19.9197 33.1062 22.2758 35.0527 25.0528 36.1374C27.5109 37.0792 29.1341 39.4387 29.1347 42.0711H31.1259C31.129 38.6174 29.0007 35.52 25.7756 34.2846Z" fill="#0F62FE"/>
<path d="M56.0155 37.0928H49.0464V39.0839H56.0155V37.0928Z" fill="#0F62FE"/>
<path d="M48.6882 42.3012L47.4137 43.8311L53.3876 48.8082L54.6622 47.2783L48.6882 42.3012Z" fill="#0F62FE"/>
<path d="M45.064 45.0576H43.0729V52.0267H45.064V45.0576Z" fill="#0F62FE"/>
<path d="M8.98071 15.2191L1.0166 17.21L1.49922 19.1406L9.46332 17.1498L8.98071 15.2191Z" fill="#0F62FE"/>
<path d="M3.8271 5.42064L2.67041 7.04004L9.63893 12.0174L10.7956 10.398L3.8271 5.42064Z" fill="#0F62FE"/>
<path d="M13.1297 0.00874174L11.2007 0.501953L13.2369 8.46599L15.1659 7.97278L13.1297 0.00874174Z" fill="#0F62FE"/>
</g>
<defs>
<clipPath id="clip0_42_54">
<rect width="60" height="60" fill="white"/>
</clipPath>
</defs>
</svg>

<svg xmlns="http://www.w3.org/2000/svg" width="60" height="60" fill="none" viewBox="0 0 60 60"><g fill="#0f62fe" clip-path="url(#a)"><path d="m59.146 15.755-.002-.002-3.873-.552a.996.996 0 0 1-.457-1.782l3.13-2.348a.995.995 0 0 0 .199-1.394L54.559 4.9a.996.996 0 0 0-1.394-.2l-3.129 2.348a.996.996 0 0 1-1.587-.937l.554-3.873a.996.996 0 0 0-.845-1.127l-5.91-.844a.996.996 0 0 0-1.127.844l-.554 3.873a.996.996 0 0 1-1.782.457l-2.347-3.13a.996.996 0 0 0-1.394-.2l-2.991 2.246a19.3 19.3 0 0 0-4.072 0A18.916 18.916 0 0 0 11.3 21.318c-.026.281-.036.561-.05.84h-.299a.996.996 0 0 0-.973.797l-.688 3.272-2.756-1.9a.996.996 0 0 0-1.27.115L2.28 27.429a.996.996 0 0 0-.116 1.268l1.892 2.75-3.272.689A.996.996 0 0 0 0 33.11v3.983c0 .47.33.877.79.974l3.273.688-1.892 2.751a.996.996 0 0 0 .116 1.269l2.987 2.986c.34.34.873.389 1.269.116l2.75-1.897.689 3.273a.996.996 0 0 0 .973.796h3.983c.47 0 .877-.33.974-.79l.688-3.273 2.751 1.892a.996.996 0 0 0 1.268-.116l1.547-1.55v2.836a3.97 3.97 0 0 0 1.99 3.43v5.53c0 2.2 1.784 3.983 3.983 3.983h3.982c2.2 0 3.983-1.783 3.983-3.982v-5.532a3.97 3.97 0 0 0 1.991-3.428v-3.941a4.88 4.88 0 0 1 2.303-4.064 19 19 0 0 0 2.343-1.792l-1.328-1.483a17 17 0 0 1-2.097 1.603 6.86 6.86 0 0 0-3.212 5.736v3.94c0 1.1-.892 1.992-1.991 1.992h-7.965c-1.1 0-1.991-.892-1.991-1.992v-4.023a6.7 6.7 0 0 0-3.158-5.619c-7.891-4.958-10.268-15.374-5.31-23.265a16.87 16.87 0 0 1 14.227-7.896 1 1 0 0 0-.039.108 1 1 0 0 0 .19.738l2.347 3.129c.248.32.271.76.06 1.105a.99.99 0 0 1-.996.479l-3.873-.554a.996.996 0 0 0-1.126.845l-.846 5.913a.996.996 0 0 0 .844 1.127h.002l3.872.554a.996.996 0 0 1 .457 1.782l-3.129 2.347a.995.995 0 0 0-.199 1.393l3.584 4.78c.33.44.954.528 1.394.198l3.13-2.346a.995.995 0 0 1 1.582.937l-.553 3.872a.996.996 0 0 0 .845 1.127l5.913.846a.995.995 0 0 0 1.127-.845l.553-3.873a.996.996 0 0 1 1.782-.457l2.348 3.129c.33.44.954.529 1.394.199l4.778-3.584a.996.996 0 0 0 .2-1.394l-2.347-3.13a.98.98 0 0 1-.06-1.104.97.97 0 0 1 .996-.478l3.873.552a.996.996 0 0 0 1.127-.844l.844-5.914a.995.995 0 0 0-.844-1.127M26.148 51.031h7.965v1.991h-7.965zm0 3.982h7.965v.996c0 1.1-.892 1.99-1.992 1.99H28.14a1.99 1.99 0 0 1-1.991-1.99zm-7.926-17.169q.816.668 1.702 1.24a4.86 4.86 0 0 1 2.006 2.547l-2.136 2.132-2.068-1.426a1.99 1.99 0 0 0-3.078 1.23l-.522 2.486H11.76l-.522-2.482a1.99 1.99 0 0 0-3.078-1.23l-2.07 1.422-1.814-1.81 1.425-2.067a1.99 1.99 0 0 0-1.229-3.08l-2.482-.522V33.92l2.482-.523a1.99 1.99 0 0 0 1.23-3.073L4.277 28.25l1.814-1.81 2.07 1.426a1.99 1.99 0 0 0 3.077-1.23l.174-.83c.16 1.148.424 2.278.79 3.377a5.973 5.973 0 1 0 6.02 8.661m-1.546-1.402a3.977 3.977 0 1 1-3.734-5.323h.038a18.9 18.9 0 0 0 3.696 5.323M57.31 21.526l-2.888-.412a2.987 2.987 0 0 0-2.811 4.749l1.75 2.332-3.187 2.39-1.75-2.332a2.987 2.987 0 0 0-5.346 1.369l-.403 2.891-3.942-.563.412-2.888a2.987 2.987 0 0 0-4.749-2.812l-2.332 1.749-2.39-3.186 2.332-1.75a2.987 2.987 0 0 0-1.369-5.346l-2.887-.412.563-3.942 2.888.412a2.986 2.986 0 0 0 2.812-4.749l-1.755-2.334 3.186-2.39 1.75 2.333a2.987 2.987 0 0 0 5.346-1.37l.412-2.886 3.942.562-.412 2.887A2.987 2.987 0 0 0 51.23 8.64l2.332-1.75 2.39 3.187-2.333 1.75a2.987 2.987 0 0 0 1.369 5.346l2.887.412z"/><path d="M42.81 9.48a7.965 7.965 0 1 0 7.965 7.964A7.974 7.974 0 0 0 42.81 9.48m0 13.938a5.973 5.973 0 1 1 5.973-5.974 5.98 5.98 0 0 1-5.973 5.974M31.126 44.062h-1.991v2.986h1.99zm-5.35-9.777c-6.146-2.401-9.182-9.33-6.781-15.476.93-2.381 2.6-4.401 4.764-5.763l-1.065-1.685c-6.513 4.103-8.466 12.71-4.363 19.223a13.94 13.94 0 0 0 6.722 5.553 6.36 6.36 0 0 1 4.082 5.934h1.99a8.33 8.33 0 0 0-5.35-7.786m30.241 2.808h-6.97v1.99h6.97zm-7.328 5.208-1.274 1.53 5.974 4.977 1.274-1.53zm-3.624 2.757h-1.991v6.969h1.991zM8.98 15.22l-7.963 1.99.482 1.93 7.964-1.99zm-5.153-9.8L2.67 7.04l6.969 4.977 1.157-1.619zM13.13.009 11.2.502l2.037 7.964 1.929-.493z"/></g><defs><clipPath id="a"><path fill="#fff" d="M0 0h60v60H0z"/></clipPath></defs></svg>
